<?xml version="1.0" encoding="UTF-8"?>
<map version="1.10" tiledversion="1.11.2" orientation="orthogonal" renderorder="right-down" width="30" height="20" tilewidth="16" tileheight="16" infinite="0" nextlayerid="3" nextobjectid="1">
 <tileset firstgid="1" source="../tilesets/tileset.tsx"/>
 <layer id="1" name="ground_layer" width="30" height="20">
  <data encoding="csv">
40,40,40,40,40,40,40,40,40,40,97,708,609,609,609,609,609,609,609,609,673,674,674,674,674,674,674,674,674,674,
40,65,66,67,66,67,66,67,68,40,97,769,609,609,609,609,609,609,609,609,673,674,674,674,674,674,674,674,674,674,
40,97,36,73,73,73,73,73,100,40,97,676,609,609,609,609,609,609,609,609,673,674,674,674,674,674,674,674,674,674,
40,97,73,34,73,73,41,73,100,40,97,676,609,609,609,609,609,609,609,609,673,674,674,674,674,674,674,674,674,674,
40,97,73,73,73,73,73,73,100,40,97,676,609,609,609,609,609,609,609,609,673,674,674,674,674,674,674,674,674,674,
40,97,73,73,73,35,73,73,100,40,97,737,609,609,609,609,609,609,609,609,673,674,674,674,674,674,674,674,674,674,
40,97,73,73,73,73,42,73,100,40,97,769,609,609,609,609,609,609,609,609,673,674,674,674,674,674,674,674,674,674,
40,97,34,73,73,73,73,73,100,40,97,769,609,609,609,609,609,609,609,609,673,674,674,674,674,674,674,674,674,674,
40,129,37,37,37,37,37,37,132,40,97,801,609,609,609,609,609,609,609,609,673,674,674,674,674,674,674,674,674,674,
40,40,40,40,274,40,40,40,40,40,97,676,609,609,609,609,609,609,609,3221226180,2684355267,674,674,674,674,674,674,674,674,674,
67,67,67,67,67,67,67,67,67,67,2684354691,3221226179,3221226178,3221226178,3221226178,3221226178,3221226178,3221226178,1610613412,2684355267,674,674,674,674,674,674,674,674,674,674,
73,73,73,73,73,73,73,73,73,73,675,675,675,675,675,675,675,675,675,675,674,674,674,674,674,674,674,674,674,674,
73,73,69,70,70,70,70,70,71,73,675,675,675,675,675,675,675,675,675,675,674,674,674,674,674,674,674,674,674,674,
73,73,101,106,107,108,202,202,103,73,675,675,675,675,675,675,675,675,675,675,674,674,674,674,674,674,674,674,674,674,
73,73,101,170,171,172,202,202,103,73,675,675,675,675,675,675,675,675,675,675,674,674,674,674,674,674,674,674,674,674,
73,73,133,134,400,202,202,202,103,73,675,675,675,675,675,675,675,675,675,675,674,674,674,674,674,674,674,674,674,674,
73,73,73,73,133,134,134,134,135,73,675,675,675,675,675,675,675,675,675,675,674,674,674,674,674,674,674,674,674,674,
674,674,674,674,674,674,674,674,674,674,674,674,674,674,674,674,674,674,674,674,674,674,674,674,674,674,674,674,674,674,
674,674,674,674,674,674,674,674,674,674,674,674,674,674,674,674,674,674,674,674,674,674,674,674,674,674,674,674,674,674,
674,674,674,674,674,674,674,674,674,674,674,674,674,674,674,674,674,674,674,674,674,674,674,674,674,674,674,674,674,674
</data>
 </layer>
 <layer id="2" name="objects_layer" width="30" height="20">
  <data encoding="csv">
0,0,0,0,0,0,0,0,0,0,0,0,0,0,0,0,0,0,0,0,0,0,0,0,0,0,0,0,0,0,
0,0,0,0,0,0,0,0,0,0,0,0,0,0,0,0,0,0,0,0,0,0,0,0,0,0,0,0,0,0,
0,0,0,0,0,0,0,0,0,0,0,0,0,0,0,0,0,0,0,0,0,0,0,0,0,0,0,0,0,0,
0,0,0,0,0,0,0,0,0,0,0,0,0,0,0,0,0,0,0,0,0,0,0,0,0,0,0,0,0,0,
0,0,0,0,0,0,0,0,0,0,0,0,0,0,0,0,0,0,0,0,0,0,0,0,0,0,0,0,0,0,
0,0,0,0,0,0,0,0,0,0,0,0,0,0,0,0,0,0,0,0,0,0,0,0,0,0,0,0,0,0,
0,0,0,0,0,0,0,0,0,0,0,0,0,0,0,0,0,0,0,0,0,0,0,0,0,0,0,0,0,0,
0,0,0,0,0,0,0,0,0,0,0,0,0,0,0,0,0,0,0,0,789,0,0,0,0,0,0,0,0,0,
0,0,0,0,0,0,0,0,0,0,0,0,0,0,0,0,0,0,0,0,0,789,790,791,792,793,794,0,0,0,
0,0,0,0,0,0,0,0,0,0,0,0,0,0,0,0,0,0,0,0,0,821,822,823,824,825,826,0,0,0,
0,0,0,0,0,0,0,0,0,0,0,0,0,0,0,0,0,0,0,0,0,853,854,855,856,857,858,0,0,0,
0,0,0,0,0,0,0,0,0,0,0,0,0,0,0,0,0,0,0,0,0,885,886,887,888,889,890,0,0,0,
0,0,0,0,0,0,0,0,0,0,0,0,0,0,0,0,0,0,0,0,0,917,918,919,920,921,922,0,0,0,
0,0,0,0,0,0,0,0,0,0,0,0,0,0,0,0,0,0,0,0,0,0,0,951,952,953,954,0,0,0,
0,0,0,0,0,0,0,0,0,0,0,0,0,0,0,0,0,0,0,0,0,953,954,983,984,985,986,0,0,0,
0,0,0,0,0,0,0,0,0,0,0,0,0,0,0,0,0,0,0,0,0,985,986,0,0,0,0,0,0,0,
0,0,0,0,0,0,0,0,0,0,0,0,0,0,0,0,0,0,0,0,0,0,0,0,0,0,0,0,0,0,
0,0,0,0,0,0,0,0,0,0,0,0,0,0,514,515,516,517,0,0,0,0,0,0,0,0,0,0,0,0,
0,0,0,0,0,0,0,0,0,0,0,0,0,0,0,547,548,0,0,0,0,0,0,0,450,451,450,451,450,451,
0,0,0,0,0,0,0,0,0,0,0,0,0,0,0,579,580,0,0,0,0,0,0,0,482,483,482,483,482,483
</data>
 </layer>
</map>
